X: 39108
T: Sweeper's Tune, The
R: waltz
M: 3/4
K: Bminor
f2 (3def (3Bdf|a2 f>d f>d|e2 (3cde (3dcB|A>F A>c d>e|
f>e d>B d>f|a2 f>d f>d|e2 (3cde (3dcB|1 B4 f>g:|
|:f>d A>A d>f|e>d c>c d>c|B>c d>c d>e|d>e f>f e>d|
f2 (3def (3Adf|e>d c>c d>c|B2 (3cde (3fed|1 B4 d>e:|

